img/icons/icons8-linkedin.svg

<svg height="96" viewBox="0 0 48 48" width="96" xmlns="http://www.w3.org/2000/svg"><path d="m42 37c0 2.762-2.238 5-5 5h-26c-2.761 0-5-2.238-5-5v-26c0-2.762 2.239-5 5-5h26c2.762 0 5 2.238 5 5z" fill="#0288d1"/><path d="m12 19h5v17h-5zm2.485-2h-.028c-1.492 0-2.457-1.112-2.457-2.501 0-1.419.995-2.499 2.514-2.499 1.521 0 2.458 1.08 2.486 2.499 0 1.388-.965 2.501-2.515 2.501zm21.515 19h-5v-9.099c0-2.198-1.225-3.698-3.192-3.698-1.501 0-2.313 1.012-2.707 1.99-.144.35-.101 1.318-.101 1.807v9h-5v-17h5v2.616c.721-1.116 1.85-2.616 4.738-2.616 3.578 0 6.261 2.25 6.261 7.274z" fill="#fff"/></svg>

<svg xmlns="http://www.w3.org/2000/svg"  viewBox="0 0 48 48" width="96px" height="96px"><path fill="#0288D1" d="M42,37c0,2.762-2.238,5-5,5H11c-2.761,0-5-2.238-5-5V11c0-2.762,2.239-5,5-5h26c2.762,0,5,2.238,5,5V37z"/><path fill="#FFF" d="M12 19H17V36H12zM14.485 17h-.028C12.965 17 12 15.888 12 14.499 12 13.08 12.995 12 14.514 12c1.521 0 2.458 1.08 2.486 2.499C17 15.887 16.035 17 14.485 17zM36 36h-5v-9.099c0-2.198-1.225-3.698-3.192-3.698-1.501 0-2.313 1.012-2.707 1.99C24.957 25.543 25 26.511 25 27v9h-5V19h5v2.616C25.721 20.5 26.85 19 29.738 19c3.578 0 6.261 2.25 6.261 7.274L36 36 36 36z"/></svg>
